symbols/web/auto_read_play/materialsymbolssharp/auto_read_play_wght200gradN25_20px.svg

<svg xmlns="http://www.w3.org/2000/svg" height="20" width="20"><path d="m8.354 10.854 3.813-2.521-3.813-2.541Zm-5.729 5.688V2.625h14.75v11.417H5.125Zm.854-2.084 1.271-1.25h11.771v-9.75H3.479Zm0 0v-11 9.75Z"/></svg>

<svg xmlns="http://www.w3.org/2000/svg" height="20" width="20"><path d="M8.354 10.854 12.167 8.333 8.354 5.792ZM2.625 16.542V2.625H17.375V14.042H5.125ZM3.479 14.458 4.75 13.208H16.521V3.458H3.479ZM3.479 14.458V3.458V13.208Z"/></svg>
